res/skins/Tango/buttons/btn_beats_slower.svg

<!-- Created with Inkscape (http://www.inkscape.org/) -->
<svg id="svg5443" width="24" height="24" version="1.1" xmlns="http://www.w3.org/2000/svg"><path id="path4753-9" d="m5 21h-2v-18h2z" fill="#888"/><path id="path4753-9-35" d="m5 21h-2v-18h2z" fill="#888"/><path id="path4753-9-3-7" d="m14 10h2v3l7-4-7-4v3h-2z" fill="#aaa"/><path id="path4753-9-3-6" d="m15 21h-2v-10h2z" fill="#888"/><path id="path4753-9-3-5" d="m15 7h-2v-4h2z" fill="#888"/></svg>

<?xml version="1.0" encoding="UTF-8" standalone="no"?>
<!-- Created with Inkscape (http://www.inkscape.org/) -->

<svg
   xmlns:dc="http://purl.org/dc/elements/1.1/"
   xmlns:cc="http://creativecommons.org/ns#"
   xmlns:rdf="http://www.w3.org/1999/02/22-rdf-syntax-ns#"
   xmlns:svg="http://www.w3.org/2000/svg"
   xmlns="http://www.w3.org/2000/svg"
   version="1.1"
   width="24"
   height="24"
   id="svg5443">
  <metadata
     id="metadata5455">
    <rdf:RDF>
      <cc:Work
         rdf:about="">
        <dc:format>image/svg+xml</dc:format>
        <dc:type
           rdf:resource="http://purl.org/dc/dcmitype/StillImage" />
        <dc:title></dc:title>
      </cc:Work>
    </rdf:RDF>
  </metadata>
  <defs
     id="defs5453" />
  <path
     d="M 5,21 H 3 L 3,3 5,3 z"
     id="path4753-9"
     style="fill:#888888;fill-opacity:1" />
  <path
     d="M 5,21 H 3 L 3,3 5,3 z"
     id="path4753-9-35"
     style="fill:#888888;fill-opacity:1" />
  <path
     d="m 14,9.9999996 2,0 L 16,13 23,9 16,5 16,8 14,8 z"
     id="path4753-9-3-7"
     style="fill:#aaaaaa;fill-opacity:1" />
  <path
     d="m 15,21 h -2 l 0,-10 2,0 z"
     id="path4753-9-3-6"
     style="fill:#888888;fill-opacity:1" />
  <path
     d="m 15,7 h -2 l 0,-4 2,0 z"
     id="path4753-9-3-5"
     style="fill:#888888;fill-opacity:1" />
</svg>
